src/img/Union11.svg

<svg width="50.000000" height="47.077148" viewBox="0 0 50 47.0771" fill="none" xmlns="http://www.w3.org/2000/svg" xmlns:xlink="http://www.w3.org/1999/xlink">
	<desc>
			Created with Pixso.
	</desc>
	<defs/>
	<path id="Union" d="M13.5464 0C16.4077 0 18.8442 0.223633 20.8564 0.670898Q23.5532 1.26953 25.0718 2.94043Q25.2524 3.13965 25.4165 3.35352C26.4897 4.64941 27.0259 6.61719 27.0259 9.25488Q27.0259 11.8906 26.2754 14.292Q26.1289 14.7617 25.9531 15.2227C25.2822 17.1006 24.2539 19.0459 22.8682 21.0576Q20.8564 24.0078 17.7046 27.6299L2.146 45.6025L29.105 45.6025L29.105 47.0771L0 47.0771L0 46.1387C0 45.915 0.0224609 45.7363 0.0668945 45.6025L0.335449 45.2002L16.4302 26.624Q21.1245 21.1914 23.2036 17.0342Q25.2231 13.1201 25.2231 9.20703Q25.2231 8.96289 25.2153 8.71777C25.126 6.52734 24.5894 4.94043 23.606 3.95703C22.667 2.92871 21.3481 2.28027 19.6494 2.01172Q17.168 1.54199 13.8818 1.54199Q11.8027 1.54199 9.85791 1.67676Q7.98047 1.74316 5.83447 2.0791C4.40381 2.30273 2.72705 2.61523 0.804688 3.01758L0.402344 1.81055Q3.62158 1.00586 5.83447 0.670898C7.30957 0.402344 8.65088 0.223633 9.85791 0.133789C11.0654 0.0449219 12.2949 0 13.5464 0ZM50 0.803711L50 47.0771L48.3232 47.0771L48.3232 5.63281C48.3232 5.14062 48.3457 4.62695 48.3906 4.08984C48.4351 3.55371 48.48 3.03906 48.5244 2.54785L35.9839 6.77246L35.6489 5.69922L48.3232 0.803711L50 0.803711Z" fill="#FFFFFF" fill-opacity="1.000000" fill-rule="evenodd"/>
</svg>

<svg width="50" height="47.077" fill="none" xmlns="http://www.w3.org/2000/svg"><path d="M13.546 0c2.862 0 5.298.224 7.31.67q2.697.6 4.216 2.27.18.2.345.414c1.073 1.295 1.609 3.263 1.609 5.9q0 2.637-.75 5.038-.147.47-.323.93c-.67 1.879-1.7 3.824-3.085 5.836q-2.012 2.95-5.163 6.572L2.146 45.603h26.959v1.474H0v-.938c0-.224.022-.403.067-.537l.268-.402L16.43 26.624q4.695-5.433 6.774-9.59 2.02-3.914 2.02-7.827 0-.244-.009-.49c-.089-2.19-.626-3.777-1.609-4.76-.939-1.028-2.258-1.677-3.957-1.945q-2.481-.47-5.767-.47-2.08 0-4.024.135-1.878.066-4.024.402c-1.43.224-3.107.536-5.03.939L.403 1.81q3.22-.805 5.432-1.14A38.684 38.684 0 0 1 9.858.134 50.243 50.243 0 0 1 13.546 0ZM50 .804v46.273h-1.677V5.633c0-.492.023-1.006.068-1.543.044-.536.089-1.05.133-1.542l-12.54 4.224-.335-1.073L48.323.804H50Z" fill="#FFF" fill-rule="evenodd"/></svg>
